X: 17769
T: Honey Bee
R: reel
M: 4/4
K: Gmajor
|:"G"d2 dd "D"cBAc|"G"B2 GG "D" A2 F2|"G" B2 GG "D" A2FF|"G" GABG D2 Bc|
"G" d2 dd "D"cBAc|"G"B2 GG"D"A2 FF|"G"B2 GG "D"AG FA|1 "G" G2D2,G2(3ABc:|2 "G" G2 A2 B2 d2||
|:"G" g2 gg "Bm" f>dBd|"Em" e>deg "Bm" fed2|"G" g2 gg "Bm" fdB2|"C"e2 (3efg "D"a4|
"G" g2 gg "Bm" f>dBd|"Em" e>deg "Bm" fdB2|"G" d2 dd "D"cBAd-|1 dc AF "G" G2 Bd:|2 dc AF "G" G||

